X:1
T:Au trente et un du mois d'Aot
C:Traditionnel.  Fichier ABC par Bernard Loffet
L:1/8
Q:324
M:9/8
K:G
 z3 [DD,D,]DD | [G3G,3G,3] [BD,D,]BB | [G3G,3G,3] [BG,G,]BB | [B2E,2E,2]G [B2A,2A,2]G | \
 [A3D,3D,3] [DD,D,]DD | [G3G,3G,3] [BD,D,]BB | [G3G,3G,3] [BG,G,]BB | [B2E,2E,2]G [B2A,2A,2]G | \
 [A3D,3D,3] [AD,D,]Bc | [B2G,2G,2]G [G2G,2G,2]F | [E3C,3C,3] [D3D,3D,3] [D,2D,2]D | \
 [GG,G,]GG [AD,D,]GA | [B3G,3G,3] [AD,D,]Bc | [B3C,3C,3] [AD,D,]GA | [G3G,3G,3] [G,3G,3] | \
 [G,3G,3] [DD,D,]DD | [G3G,3G,3] [BD,D,]BB | [G3G,3G,3] [BG,G,]BB | [B2E,2E,2]G [B2A,2A,2]G | \
 [A3D,3D,3] [AD,D,]Bc | [B2G,2G,2]G [G2G,2G,2]F | [E3C,3C,3] [D3D,3D,3] | [D,2D,2]D [GG,G,]GG | \
 [AD,D,]GA [B3G,3G,3] | [AD,D,]Bc [B3C,3C,3] | [AD,D,]GA [G3G,3G,3] | [G,3G,3] [G,3G,3] | \
Z:Created with TablEdit http://www.tabledit.com/ by Bernard Loffet
